X: 1
T: Polka D'Alfred Couillard
M: 4/4
L: 1/8
R: schottische  (which did sometimes get referred to as a 'polka' or 'barndance')
K: Gmaj
|: D2 G>A B>GB>d | c2 B2 B4 | B2 A>B c>AF>G | (3ABA (3GAG (3FGF (3EFE |
D2 G>A B>GB>d | c2 B2 B4 | B2 A>B c>AF>G | A2 G2 G4 :|
|: D2 D2 D4 | E4 D4 | B2 A>B c>AF>G | (3ABA (3GAG (3FGF (3EFE |
D2 D2 D4 | E2 E2 D4 | B2 A>B c>AF>G | A2 G2 G4 :|
